package/converter/svg/light/mars.svg

<svg xmlns="http://www.w3.org/2000/svg" viewBox="0 0 448 512"><!-- Font Awesome Pro 6.0.0-alpha2 by @fontawesome - https://fontawesome.com License - https://fontawesome.com/license (Commercial License) --><path d="M446.77 41.891C445.148 37.973 442.027 34.852 438.109 33.23C436.154 32.422 434.082 32 432 32H304C295.156 32 288 39.156 288 48S295.156 64 304 64H393.375L288.6 168.775C258.08 143.334 218.84 128 176 128C78.797 128 0 206.799 0 304S78.797 480 176 480S352 401.201 352 304C352 261.16 336.664 221.922 311.223 191.402L416 86.625V176C416 184.844 423.156 192 432 192S448 184.844 448 176V48C448 45.918 447.578 43.846 446.77 41.891ZM320 304C320 383.402 255.402 448 176 448S32 383.402 32 304S96.598 160 176 160S320 224.598 320 304Z"/></svg>

<svg xmlns="http://www.w3.org/2000/svg" viewBox="0 0 448 512"><!--! Font Awesome Pro 6.6.0 by @fontawesome - https://fontawesome.com License - https://fontawesome.com/license (Commercial License) Copyright 2024 Fonticons, Inc. --><path d="M304 32c-8.8 0-16 7.2-16 16s7.2 16 16 16l89.4 0L288.6 168.7C258.1 143.3 218.8 128 176 128C78.8 128 0 206.8 0 304s78.8 176 176 176s176-78.8 176-176c0-42.8-15.3-82.1-40.7-112.6L416 86.6l0 89.4c0 8.8 7.2 16 16 16s16-7.2 16-16l0-128c0-8.8-7.2-16-16-16L304 32zM32 304a144 144 0 1 1 288 0A144 144 0 1 1 32 304z"/></svg>
